Icons/com_rovio_badpiggies.svg

<svg viewBox="0 0 48 48" xmlns:xlink="http://www.w3.org/1999/xlink">
 <defs>
  <linearGradient id="0">
   <stop stop-opacity="0"/>
   <stop offset="1"/>
  </linearGradient>
  <linearGradient xlink:href="#0" id="1" gradientUnits="userSpaceOnUse" gradientTransform="translate(4e-7,-48)" y1="47" x2="0" y2="1"/>
  <clipPath id="2">
   <g transform="translate(0,-1004.3622)">
    <rect rx="4" y="1005.36" x="1" height="46" width="46" fill="#1890d0"/>
   </g>
  </clipPath>
  <clipPath id="3">
   <g transform="translate(0,-1004.3622)">
    <rect rx="4" y="1005.36" x="1" height="46" width="46" fill="#1890d0"/>
   </g>
  </clipPath>
 </defs>
 <g>
  <g transform="translate(0,-1004.3622)">
   <path d="m 5,1006.3622 c -2.216,0 -4,1.784 -4,4 l 0,37.25 c 0,2.216 1.784,4 4,4 l 38,0 c 2.216,0 4,-1.784 4,-4 l 0,-37.25 c 0,-2.216 -1.784,-4 -4,-4 l -38,0 z m -4,41.5 0,0.5 c 0,2.216 1.784,4 4,4 l 38,0 c 2.216,0 4,-1.784 4,-4 l 0,-0.5 c 0,2.216 -1.784,4 -4,4 l -38,0 c -2.216,0 -4,-1.784 -4,-4 z" opacity="0.02"/>
   <path d="m 1,1047.6122 0,0.25 c 0,2.216 1.784,4 4,4 l 38,0 c 2.216,0 4,-1.784 4,-4 l 0,-0.25 c 0,2.216 -1.784,4 -4,4 l -38,0 c -2.216,0 -4,-1.784 -4,-4 z" opacity="0.05"/>
   <rect width="46" height="46" x="1" y="1005.61" rx="4" opacity="0.1"/>
  </g>
 </g>
 <g>
  <g transform="translate(0,-1004.3622)">
   <rect rx="4" y="1005.36" x="1" height="46" width="46" fill="#7ce55b"/>
  </g>
 </g>
 <g>
  <rect transform="scale(1,-1)" width="46" height="46" x="1" y="-46.998" rx="4" opacity="0.1" fill="url(#1)"/>
 </g>
 <g>
  <g clip-path="url(#2)">
   <g opacity="0.1">
    <g>
     <path d="M 19.59375 30.777344 C 19.160156 30.546875 18.644531 30.183594 18.480469 29.757812 C 18.472656 29.738281 18.472656 29.730469 18.484375 29.726562 C 18.488281 29.726562 18.640625 29.652344 18.824219 29.570312 C 21.382812 28.285156 27.972656 27.394531 31.40625 26.933594 C 31.503906 27.476562 31.539062 28.214844 31.125 28.625 C 28.40625 31.324219 21.617188 31.871094 19.59375 30.78125 Z M 19.59375 30.777344 "/>
     <path d="M 28.890625 27.984375 C 28.347656 28.625 27.582031 29.042969 26.808594 29.375 C 27.019531 29.925781 27.425781 30.527344 28.082031 30.617188 C 28.429688 30.648438 28.890625 30.628906 29.054688 30.273438 C 29.3125 29.773438 29.234375 29.191406 29.183594 28.65625 C 29.144531 28.414062 29.0625 28.171875 28.890625 27.984375 Z M 21.050781 29.933594 C 21.019531 30.65625 21.359375 31.46875 22.097656 31.757812 C 22.597656 31.960938 23.167969 31.609375 23.332031 31.144531 C 23.449219 30.855469 23.546875 30.425781 23.414062 30.179688 C 22.621094 30.226562 21.816406 30.144531 21.050781 29.933594 Z M 26.429688 29.511719 C 25.625 29.785156 24.796875 29.992188 23.957031 30.128906 C 24 30.863281 24.371094 31.683594 25.140625 31.949219 C 25.675781 32.128906 26.273438 31.800781 26.476562 31.3125 C 26.753906 30.746094 26.683594 30.074219 26.429688 29.511719 Z M 26.429688 29.511719 "/>
     <path d="M 22.839844 20.445312 C 21.136719 20.746094 19.519531 21.675781 18.632812 23.121094 C 17.664062 24.664062 17.714844 26.722656 18.683594 28.25 C 19.398438 29.121094 20.617188 29.316406 21.691406 29.488281 C 23.664062 29.734375 25.671875 29.265625 27.445312 28.441406 C 28.289062 28.011719 29.121094 27.449219 29.609375 26.640625 C 30.015625 25.832031 29.816406 24.894531 29.621094 24.058594 C 29.230469 22.605469 28.171875 21.28125 26.683594 20.730469 C 25.476562 20.246094 24.113281 20.199219 22.839844 20.445312 Z M 21 23.863281 C 21.765625 23.726562 22.386719 24.40625 22.632812 25.027344 C 22.917969 25.765625 22.949219 26.738281 22.320312 27.324219 C 21.824219 27.78125 20.988281 27.640625 20.582031 27.144531 C 19.960938 26.46875 19.902344 25.460938 20.140625 24.628906 C 20.269531 24.257812 20.582031 23.925781 21 23.863281 Z M 25.621094 23.238281 C 26.558594 23.050781 27.378906 23.894531 27.488281 24.734375 C 27.644531 25.476562 27.199219 26.34375 26.378906 26.488281 C 25.355469 26.683594 24.453125 25.738281 24.464844 24.796875 C 24.429688 24.105469 24.878906 23.382812 25.621094 23.238281 Z M 25.621094 23.238281 "/>
     <path d="M 14.574219 23.011719 C 13.253906 23.261719 12.441406 24.582031 12.5 25.820312 C 12.457031 27.25 13.609375 28.625 15.121094 28.75 C 16.191406 28.878906 17.230469 28.210938 17.78125 27.371094 C 17.460938 26.40625 17.421875 25.355469 17.652344 24.367188 C 17.109375 23.339844 15.898438 22.707031 14.703125 22.988281 C 14.660156 22.996094 14.617188 23.003906 14.574219 23.015625 Z M 32.371094 19.808594 C 30.453125 20.230469 29.640625 22.78125 30.808594 24.242188 C 31.554688 25.3125 33.128906 26.089844 34.386719 25.347656 C 35.980469 24.503906 36.578125 22.21875 35.324219 20.875 C 34.625 20.058594 33.464844 19.609375 32.371094 19.808594 Z M 32.039062 22.0625 C 33.105469 21.855469 33.0625 23.59375 32.023438 23.367188 C 31.269531 23.226562 31.304688 22.183594 32.039062 22.0625 Z M 16.40625 25.09375 C 17.488281 24.863281 17.453125 26.613281 16.414062 26.398438 C 15.675781 26.277344 15.671875 25.222656 16.40625 25.09375 Z M 16.40625 25.09375 "/>
     <path d="M 13.851562 19.488281 C 13.8125 19.496094 13.773438 19.503906 13.734375 19.523438 C 12.945312 19.734375 11.65625 20.515625 12.085938 21.394531 C 12.894531 21.832031 13.375 20.480469 14.25 20.589844 C 15.496094 20.765625 15.054688 19.25 13.855469 19.496094 Z M 32.675781 16.070312 C 31.996094 16.199219 31.394531 17.277344 32.445312 17.253906 C 33.191406 17.027344 33.914062 17.367188 34.605469 17.601562 C 35.292969 17.011719 34.414062 16.324219 33.808594 16.144531 C 33.5 16.011719 33.140625 15.945312 32.8125 16.058594 C 32.765625 16.054688 32.71875 16.0625 32.675781 16.070312 Z M 32.675781 16.070312 "/>
    </g>
   </g>
  </g>
 </g>
 <g>
  <g clip-path="url(#3)">
   <g transform="translate(0,-1)">
    <g>
     <path d="M 19.59375 30.777344 C 19.160156 30.546875 18.644531 30.183594 18.480469 29.757812 C 18.472656 29.738281 18.472656 29.730469 18.484375 29.726562 C 18.488281 29.726562 18.640625 29.652344 18.824219 29.570312 C 21.382812 28.285156 27.972656 27.394531 31.40625 26.933594 C 31.503906 27.476562 31.539062 28.214844 31.125 28.625 C 28.40625 31.324219 21.617188 31.871094 19.59375 30.78125 Z M 19.59375 30.777344 " fill="#3c5833"/>
     <path d="M 28.890625 27.984375 C 28.347656 28.625 27.582031 29.042969 26.808594 29.375 C 27.019531 29.925781 27.425781 30.527344 28.082031 30.617188 C 28.429688 30.648438 28.890625 30.628906 29.054688 30.273438 C 29.3125 29.773438 29.234375 29.191406 29.183594 28.65625 C 29.144531 28.414062 29.0625 28.171875 28.890625 27.984375 Z M 21.050781 29.933594 C 21.019531 30.65625 21.359375 31.46875 22.097656 31.757812 C 22.597656 31.960938 23.167969 31.609375 23.332031 31.144531 C 23.449219 30.855469 23.546875 30.425781 23.414062 30.179688 C 22.621094 30.226562 21.816406 30.144531 21.050781 29.933594 Z M 26.429688 29.511719 C 25.625 29.785156 24.796875 29.992188 23.957031 30.128906 C 24 30.863281 24.371094 31.683594 25.140625 31.949219 C 25.675781 32.128906 26.273438 31.800781 26.476562 31.3125 C 26.753906 30.746094 26.683594 30.074219 26.429688 29.511719 Z M 26.429688 29.511719 " fill="#f9f9f9"/>
     <path d="M 22.839844 20.445312 C 21.136719 20.746094 19.519531 21.675781 18.632812 23.121094 C 17.664062 24.664062 17.714844 26.722656 18.683594 28.25 C 19.398438 29.121094 20.617188 29.316406 21.691406 29.488281 C 23.664062 29.734375 25.671875 29.265625 27.445312 28.441406 C 28.289062 28.011719 29.121094 27.449219 29.609375 26.640625 C 30.015625 25.832031 29.816406 24.894531 29.621094 24.058594 C 29.230469 22.605469 28.171875 21.28125 26.683594 20.730469 C 25.476562 20.246094 24.113281 20.199219 22.839844 20.445312 Z M 21 23.863281 C 21.765625 23.726562 22.386719 24.40625 22.632812 25.027344 C 22.917969 25.765625 22.949219 26.738281 22.320312 27.324219 C 21.824219 27.78125 20.988281 27.640625 20.582031 27.144531 C 19.960938 26.46875 19.902344 25.460938 20.140625 24.628906 C 20.269531 24.257812 20.582031 23.925781 21 23.863281 Z M 25.621094 23.238281 C 26.558594 23.050781 27.378906 23.894531 27.488281 24.734375 C 27.644531 25.476562 27.199219 26.34375 26.378906 26.488281 C 25.355469 26.683594 24.453125 25.738281 24.464844 24.796875 C 24.429688 24.105469 24.878906 23.382812 25.621094 23.238281 Z M 25.621094 23.238281 " fill="#f9ff86"/>
     <path d="M 14.574219 23.011719 C 13.253906 23.261719 12.441406 24.582031 12.5 25.820312 C 12.457031 27.25 13.609375 28.625 15.121094 28.75 C 16.191406 28.878906 17.230469 28.210938 17.78125 27.371094 C 17.460938 26.40625 17.421875 25.355469 17.652344 24.367188 C 17.109375 23.339844 15.898438 22.707031 14.703125 22.988281 C 14.660156 22.996094 14.617188 23.003906 14.574219 23.015625 Z M 32.371094 19.808594 C 30.453125 20.230469 29.640625 22.78125 30.808594 24.242188 C 31.554688 25.3125 33.128906 26.089844 34.386719 25.347656 C 35.980469 24.503906 36.578125 22.21875 35.324219 20.875 C 34.625 20.058594 33.464844 19.609375 32.371094 19.808594 Z M 32.039062 22.0625 C 33.105469 21.855469 33.0625 23.59375 32.023438 23.367188 C 31.269531 23.226562 31.304688 22.183594 32.039062 22.0625 Z M 16.40625 25.09375 C 17.488281 24.863281 17.453125 26.613281 16.414062 26.398438 C 15.675781 26.277344 15.671875 25.222656 16.40625 25.09375 Z M 16.40625 25.09375 " fill="#f9f9f9"/>
     <path d="M 13.851562 19.488281 C 13.8125 19.496094 13.773438 19.503906 13.734375 19.523438 C 12.945312 19.734375 11.65625 20.515625 12.085938 21.394531 C 12.894531 21.832031 13.375 20.480469 14.25 20.589844 C 15.496094 20.765625 15.054688 19.25 13.855469 19.496094 Z M 32.675781 16.070312 C 31.996094 16.199219 31.394531 17.277344 32.445312 17.253906 C 33.191406 17.027344 33.914062 17.367188 34.605469 17.601562 C 35.292969 17.011719 34.414062 16.324219 33.808594 16.144531 C 33.5 16.011719 33.140625 15.945312 32.8125 16.058594 C 32.765625 16.054688 32.71875 16.0625 32.675781 16.070312 Z M 32.675781 16.070312 " fill="#3c5833"/>
    </g>
   </g>
  </g>
 </g>
 <g>
  <g transform="translate(0,-1004.3622)">
   <path d="m 1,1043.3622 0,4 c 0,2.216 1.784,4 4,4 l 38,0 c 2.216,0 4,-1.784 4,-4 l 0,-4 c 0,2.216 -1.784,4 -4,4 l -38,0 c -2.216,0 -4,-1.784 -4,-4 z" opacity="0.1"/>
  </g>
 </g>
</svg>

<svg viewBox="0 0 48 48"><defs><linearGradient id="linearGradient3764" x1="1" x2="47" gradientUnits="userSpaceOnUse" gradientTransform="translate(-48.000001,0.00221467)"><stop stop-color="#6ee24a" stop-opacity="1"/><stop offset="1" stop-color="#7ce55b" stop-opacity="1"/></linearGradient><clipPath id="clipPath-803974428"><g transform="translate(0,-1004.3622)"><rect rx="4" y="1005.36" x="1" height="46" width="46" fill="#1890d0"/></g></clipPath><clipPath id="clipPath-833377463"><g transform="translate(0,-1004.3622)"><rect rx="4" y="1005.36" x="1" height="46" width="46" fill="#1890d0"/></g></clipPath></defs><g><path d="m 1 43 l 0 0.25 c 0 2.216 1.784 4 4 4 l 38 0 c 2.216 0 4 -1.784 4 -4 l 0 -0.25 c 0 2.216 -1.784 4 -4 4 l -38 0 c -2.216 0 -4 -1.784 -4 -4 z m 0 0.5 l 0 0.5 c 0 2.216 1.784 4 4 4 l 38 0 c 2.216 0 4 -1.784 4 -4 l 0 -0.5 c 0 2.216 -1.784 4 -4 4 l -38 0 c -2.216 0 -4 -1.784 -4 -4 z" opacity="0.02"/><path d="m 1 43.25 l 0 0.25 c 0 2.216 1.784 4 4 4 l 38 0 c 2.216 0 4 -1.784 4 -4 l 0 -0.25 c 0 2.216 -1.784 4 -4 4 l -38 0 c -2.216 0 -4 -1.784 -4 -4 z" opacity="0.05"/><path d="m 1 43 l 0 0.25 c 0 2.216 1.784 4 4 4 l 38 0 c 2.216 0 4 -1.784 4 -4 l 0 -0.25 c 0 2.216 -1.784 4 -4 4 l -38 0 c -2.216 0 -4 -1.784 -4 -4 z" opacity="0.1"/></g><g><rect width="46" height="46" x="-47" y="1" rx="4" transform="matrix(0,-1,1,0,0,0)" fill="url(#linearGradient3764)" fill-opacity="1"/></g><g><g clip-path="url(#clipPath-803974428)"><g opacity="0.1"><!-- color: #7ce55b --><g><path d="m 19.594 30.777 c -0.434 -0.23 -0.949 -0.594 -1.113 -1.02 c -0.008 -0.02 -0.008 -0.027 0.004 -0.031 c 0.004 0 0.156 -0.074 0.34 -0.156 c 2.559 -1.285 9.148 -2.176 12.582 -2.637 c 0.098 0.543 0.133 1.281 -0.281 1.691 c -2.719 2.699 -9.508 3.246 -11.531 2.156 m 0 -0.004" fill="#000"/><path d="m 28.891 27.984 c -0.543 0.641 -1.309 1.059 -2.082 1.391 c 0.211 0.551 0.617 1.152 1.273 1.242 c 0.348 0.031 0.809 0.012 0.973 -0.344 c 0.258 -0.5 0.18 -1.082 0.129 -1.617 c -0.039 -0.242 -0.121 -0.484 -0.293 -0.672 m -7.84 1.949 c -0.031 0.723 0.309 1.535 1.047 1.824 c 0.5 0.203 1.07 -0.148 1.234 -0.613 c 0.117 -0.289 0.215 -0.719 0.082 -0.965 c -0.793 0.047 -1.598 -0.035 -2.363 -0.246 m 5.379 -0.422 c -0.805 0.273 -1.633 0.48 -2.473 0.617 c 0.043 0.734 0.414 1.555 1.184 1.82 c 0.535 0.18 1.133 -0.148 1.336 -0.637 c 0.277 -0.566 0.207 -1.238 -0.047 -1.801 m 0 0" fill="#000"/><path d="m 22.84 20.445 c -1.703 0.301 -3.32 1.23 -4.207 2.676 c -0.969 1.543 -0.918 3.602 0.051 5.129 c 0.715 0.871 1.934 1.066 3.01 1.238 c 1.973 0.246 3.98 -0.223 5.754 -1.047 c 0.844 -0.43 1.676 -0.992 2.164 -1.801 c 0.406 -0.809 0.207 -1.746 0.012 -2.582 c -0.391 -1.453 -1.449 -2.777 -2.938 -3.328 c -1.207 -0.484 -2.57 -0.531 -3.844 -0.285 m -1.84 3.418 c 0.766 -0.137 1.387 0.543 1.633 1.164 c 0.285 0.738 0.316 1.711 -0.313 2.297 c -0.496 0.457 -1.332 0.316 -1.738 -0.18 c -0.621 -0.676 -0.68 -1.684 -0.441 -2.516 c 0.129 -0.371 0.441 -0.703 0.859 -0.766 m 4.621 -0.625 c 0.938 -0.188 1.758 0.656 1.867 1.496 c 0.156 0.742 -0.289 1.609 -1.109 1.754 c -1.023 0.195 -1.926 -0.75 -1.914 -1.691 c -0.035 -0.691 0.414 -1.414 1.156 -1.559 m 0 0" fill="#000"/><path d="m 14.574 23.01 c -1.32 0.25 -2.133 1.57 -2.074 2.809 c -0.043 1.43 1.109 2.805 2.621 2.93 c 1.07 0.129 2.109 -0.539 2.66 -1.379 c -0.32 -0.965 -0.359 -2.02 -0.129 -3 c -0.543 -1.027 -1.754 -1.66 -2.949 -1.379 c -0.043 0.008 -0.086 0.016 -0.129 0.027 m 17.797 -3.207 c -1.918 0.422 -2.73 2.973 -1.563 4.434 c 0.746 1.07 2.32 1.848 3.578 1.105 c 1.594 -0.844 2.191 -3.129 0.938 -4.473 c -0.699 -0.816 -1.859 -1.266 -2.953 -1.066 m -0.332 2.254 c 1.066 -0.207 1.023 1.531 -0.016 1.305 c -0.754 -0.141 -0.719 -1.184 0.016 -1.305 m -15.633 3.03 c 1.082 -0.23 1.047 1.52 0.008 1.305 c -0.738 -0.121 -0.742 -1.176 -0.008 -1.305 m 0 0" fill="#000"/><path d="m 13.852 19.488 c -0.039 0.008 -0.078 0.016 -0.117 0.035 c -0.789 0.211 -2.078 0.992 -1.648 1.871 c 0.809 0.438 1.289 -0.914 2.164 -0.805 c 1.246 0.176 0.805 -1.34 -0.395 -1.094 m 18.82 -3.426 c -0.68 0.129 -1.281 1.207 -0.23 1.184 c 0.746 -0.227 1.469 0.113 2.16 0.348 c 0.688 -0.59 -0.191 -1.277 -0.797 -1.457 c -0.309 -0.133 -0.668 -0.199 -0.996 -0.086 c -0.047 -0.004 -0.094 0.004 -0.137 0.012 m 0 0" fill="#000"/></g></g></g></g><g><g clip-path="url(#clipPath-833377463)"><g transform="translate(0,-1)"><!-- color: #7ce55b --><g><path d="m 19.594 30.777 c -0.434 -0.23 -0.949 -0.594 -1.113 -1.02 c -0.008 -0.02 -0.008 -0.027 0.004 -0.031 c 0.004 0 0.156 -0.074 0.34 -0.156 c 2.559 -1.285 9.148 -2.176 12.582 -2.637 c 0.098 0.543 0.133 1.281 -0.281 1.691 c -2.719 2.699 -9.508 3.246 -11.531 2.156 m 0 -0.004" fill="#3c5833"/><path d="m 28.891 27.984 c -0.543 0.641 -1.309 1.059 -2.082 1.391 c 0.211 0.551 0.617 1.152 1.273 1.242 c 0.348 0.031 0.809 0.012 0.973 -0.344 c 0.258 -0.5 0.18 -1.082 0.129 -1.617 c -0.039 -0.242 -0.121 -0.484 -0.293 -0.672 m -7.84 1.949 c -0.031 0.723 0.309 1.535 1.047 1.824 c 0.5 0.203 1.07 -0.148 1.234 -0.613 c 0.117 -0.289 0.215 -0.719 0.082 -0.965 c -0.793 0.047 -1.598 -0.035 -2.363 -0.246 m 5.379 -0.422 c -0.805 0.273 -1.633 0.48 -2.473 0.617 c 0.043 0.734 0.414 1.555 1.184 1.82 c 0.535 0.18 1.133 -0.148 1.336 -0.637 c 0.277 -0.566 0.207 -1.238 -0.047 -1.801 m 0 0" fill="#f9f9f9"/><path d="m 22.84 20.445 c -1.703 0.301 -3.32 1.23 -4.207 2.676 c -0.969 1.543 -0.918 3.602 0.051 5.129 c 0.715 0.871 1.934 1.066 3.01 1.238 c 1.973 0.246 3.98 -0.223 5.754 -1.047 c 0.844 -0.43 1.676 -0.992 2.164 -1.801 c 0.406 -0.809 0.207 -1.746 0.012 -2.582 c -0.391 -1.453 -1.449 -2.777 -2.938 -3.328 c -1.207 -0.484 -2.57 -0.531 -3.844 -0.285 m -1.84 3.418 c 0.766 -0.137 1.387 0.543 1.633 1.164 c 0.285 0.738 0.316 1.711 -0.313 2.297 c -0.496 0.457 -1.332 0.316 -1.738 -0.18 c -0.621 -0.676 -0.68 -1.684 -0.441 -2.516 c 0.129 -0.371 0.441 -0.703 0.859 -0.766 m 4.621 -0.625 c 0.938 -0.188 1.758 0.656 1.867 1.496 c 0.156 0.742 -0.289 1.609 -1.109 1.754 c -1.023 0.195 -1.926 -0.75 -1.914 -1.691 c -0.035 -0.691 0.414 -1.414 1.156 -1.559 m 0 0" fill="#f9ff86"/><path d="m 14.574 23.01 c -1.32 0.25 -2.133 1.57 -2.074 2.809 c -0.043 1.43 1.109 2.805 2.621 2.93 c 1.07 0.129 2.109 -0.539 2.66 -1.379 c -0.32 -0.965 -0.359 -2.02 -0.129 -3 c -0.543 -1.027 -1.754 -1.66 -2.949 -1.379 c -0.043 0.008 -0.086 0.016 -0.129 0.027 m 17.797 -3.207 c -1.918 0.422 -2.73 2.973 -1.563 4.434 c 0.746 1.07 2.32 1.848 3.578 1.105 c 1.594 -0.844 2.191 -3.129 0.938 -4.473 c -0.699 -0.816 -1.859 -1.266 -2.953 -1.066 m -0.332 2.254 c 1.066 -0.207 1.023 1.531 -0.016 1.305 c -0.754 -0.141 -0.719 -1.184 0.016 -1.305 m -15.633 3.03 c 1.082 -0.23 1.047 1.52 0.008 1.305 c -0.738 -0.121 -0.742 -1.176 -0.008 -1.305 m 0 0" fill="#f9f9f9"/><path d="m 13.852 19.488 c -0.039 0.008 -0.078 0.016 -0.117 0.035 c -0.789 0.211 -2.078 0.992 -1.648 1.871 c 0.809 0.438 1.289 -0.914 2.164 -0.805 c 1.246 0.176 0.805 -1.34 -0.395 -1.094 m 18.82 -3.426 c -0.68 0.129 -1.281 1.207 -0.23 1.184 c 0.746 -0.227 1.469 0.113 2.16 0.348 c 0.688 -0.59 -0.191 -1.277 -0.797 -1.457 c -0.309 -0.133 -0.668 -0.199 -0.996 -0.086 c -0.047 -0.004 -0.094 0.004 -0.137 0.012 m 0 0" fill="#3c5833"/></g></g></g></g><g><g transform="translate(0,-1004.3622)"><path d="m 1 1043.36 0 4 c 0 2.216 1.784 4 4 4 l 38 0 c 2.216 0 4 -1.784 4 -4 l 0 -4 c 0 2.216 -1.784 4 -4 4 l -38 0 c -2.216 0 -4 -1.784 -4 -4 z" opacity="0.1"/></g></g></svg>
